assets/home/icon_library.svg

<?xml version="1.0" standalone="no"?><!DOCTYPE svg PUBLIC "-//W3C//DTD SVG 1.1//EN"
  "http://www.w3.org/Graphics/SVG/1.1/DTD/svg11.dtd">
<svg class="icon" height="200" p-id="1314" t="1642685020885" version="1.1" viewBox="0 0 1024 1024"
  width="200" xmlns="http://www.w3.org/2000/svg">
  <path
    d="M217.547648 5.848611H75.008502a71.679169 71.679169 0 0 0-71.679169 71.679168V946.688897a71.679169 71.679169 0 0 0 71.679169 71.679168h142.539146a71.679169 71.679169 0 0 0 71.679169-71.679168V77.322981a71.679169 71.679169 0 0 0-71.679169-71.47437z m-6.399926 77.874296v116.939444a9.727887 9.727887 0 0 0-1.279985 0h-128.510509V83.722907zM81.357228 940.34017V278.383049h128.664107a9.727887 9.727887 0 0 0 1.279986 0v661.957121zM1019.791142 918.990018L883.805519 60.324779a71.679169 71.679169 0 0 0-81.919049-59.442511l-140.798367 22.322941a70.962377 70.962377 0 0 0-46.59146 28.620468 68.300008 68.300008 0 0 0-5.631934 9.215893 71.679169 71.679169 0 0 0-69.426395-55.192959H396.899168a71.679169 71.679169 0 0 0-71.679169 71.679168V946.688897a71.679169 71.679169 0 0 0 71.679169 71.679168h142.539146a71.679169 71.679169 0 0 0 71.679169-71.679168V162.672391l126.872128 801.014709A71.679169 71.679169 0 0 0 808.286395 1024a77.106306 77.106306 0 0 0 11.315069-0.87039l140.798367-22.322941a71.679169 71.679169 0 0 0 59.391311-81.816651zM533.038388 83.722907v116.939444H403.247894V83.722907zM403.247894 940.34017V278.383049h129.790494v661.957121z m404.475308-861.532406l18.431786 115.761857a11.724664 11.724664 0 0 0-1.279985 0l-126.923328 19.916569-18.278188-115.352262z m5.836732 866.39635l-103.4228-653.816416L837.060462 271.368731a11.929462 11.929462 0 0 0 1.279985-0.358396l103.832395 653.867615z"
    p-id="1315"></path>
</svg>

<svg class="icon" height="200" viewBox="0 0 1024 1024" width="200" xmlns="http://www.w3.org/2000/svg"><path d="M217.548 5.849H75.008A71.68 71.68 0 0 0 3.33 77.528v869.16a71.68 71.68 0 0 0 71.68 71.68h142.539a71.68 71.68 0 0 0 71.679-71.68V77.324a71.68 71.68 0 0 0-71.68-71.474zm-6.4 77.874v116.94a9.728 9.728 0 0 0-1.28 0H81.358V83.722zM81.358 940.34V278.383H210.02a9.728 9.728 0 0 0 1.28 0V940.34zm938.433-21.35L883.806 60.325A71.68 71.68 0 0 0 801.886.882L661.088 23.205a70.962 70.962 0 0 0-46.591 28.62 68.3 68.3 0 0 0-5.632 9.217 71.68 71.68 0 0 0-69.427-55.193H396.9a71.68 71.68 0 0 0-71.679 71.679v869.16a71.68 71.68 0 0 0 71.68 71.68h142.538a71.68 71.68 0 0 0 71.68-71.68V162.673L737.99 963.687A71.68 71.68 0 0 0 808.286 1024a77.106 77.106 0 0 0 11.315-.87l140.799-22.323a71.68 71.68 0 0 0 59.391-81.817zM533.038 83.723v116.94h-129.79V83.722zM403.248 940.34V278.383h129.79V940.34zM807.723 78.808l18.432 115.762a11.725 11.725 0 0 0-1.28 0l-126.923 19.916-18.279-115.352zm5.837 866.396L710.137 291.388l126.923-20.02a11.93 11.93 0 0 0 1.28-.358l103.833 653.868z"/></svg>
